Origami/24x24/apps/com.github.davidmhewitt.torrential.svg

<svg width="24" height="24" version="1" xmlns="http://www.w3.org/2000/svg">
 <rect transform="matrix(0,-1,-1,0,0,0)" x="-22" y="-22" width="20" height="20" rx="1" ry="1" style="fill:#5aa9f0"/>
 <path d="m3 2c-0.554 0-1 0.446-1 1v0.5c0-0.554 0.446-1 1-1h18c0.554 0 1 0.446 1 1v-0.5c0-0.554-0.446-1-1-1z" style="fill:#ffffff;opacity:.2"/>
 <path d="m3 22.5c-0.554 0-1-0.446-1-1v-0.5c0 0.554 0.446 1 1 1h18c0.554 0 1-0.446 1-1v0.5c0 0.554-0.446 1-1 1z" style="opacity:.2"/>
 <path d="m10 14.540039h4v-8.520508c-0.07992 0.513761-0.651367 0.520508-0.651367 0.520508s-0.666016 3.21e-4 -0.666016-0.636719c0-0.637045-0.166992-0.863281-0.666992-0.863281s-0.666992 0.2262365-0.666992 0.863281c0 0.63704-0.666016 0.636719-0.666016 0.636719s-0.666992 8e-4 -0.666992-0.636719c0 0-0.01563 6.327303-0.01563 8.636719z" style="fill:#ffffff;opacity:.2"/>
 <path d="M 10.66667,8 C 10.66667,8 10,7.9995 10,8.63704 V 13 h 4 V 8.63704 C 14,8 13.333335,8 13.333335,8 c 0,0 -0.66667,0 -0.66667,0.63704 C 12.666665,9.274085 12.5,9.5 12,9.5 11.5,9.5 11.333335,9.274085 11.333335,8.63704 11.333335,8 10.66667,8 10.66667,8 Z" style="fill:#ffffff;opacity:.5"/>
 <path d="m12 11c-0.5 0-0.666992 0.227128-0.666992 0.867188 0 0.640055-0.666016 0.632812-0.666016 0.632812s-0.666992 0.0077-0.666992-0.632812v2.632812h-3l5 5 5-5h-3v-2.632812c0 0.640055-0.666992 0.632812-0.666992 0.632812s-0.666016 0.0072-0.666016-0.632812c0-0.64006-0.166992-0.867188-0.666992-0.867188z" style="opacity:.2"/>
 <path d="m12 10.5c-0.5 0-0.666992 0.227128-0.666992 0.867188 0 0.640055-0.666016 0.632812-0.666016 0.632812s-0.666992 0.007736-0.666992-0.632812v2.632812h-3l5 5 5-5h-3v-2.632812c0 0.640055-0.666992 0.632812-0.666992 0.632812s-0.666016 0.0072-0.666016-0.632812c0-0.64006-0.166992-0.867188-0.666992-0.867188z" style="fill:#ffffff"/>
</svg>

<svg xmlns="http://www.w3.org/2000/svg" width="24" height="24" version="1">
 <rect style="fill:#5aa9f0" width="20" height="20" x="-22" y="-22" rx="1" ry="1" transform="matrix(0,-1,-1,0,0,0)"/>
 <path style="opacity:0.2;fill:#ffffff" d="M 3,2 C 2.446,2 2,2.446 2,3 v 0.5 c 0,-0.554 0.446,-1 1,-1 h 18 c 0.554,0 1,0.446 1,1 V 3 C 22,2.446 21.554,2 21,2 Z"/>
 <path style="opacity:0.2" d="m 3,22.5 c -0.554,0 -1,-0.446 -1,-1 V 21 c 0,0.554 0.446,1 1,1 h 18 c 0.554,0 1,-0.446 1,-1 v 0.5 c 0,0.554 -0.446,1 -1,1 z"/>
 <path style="opacity:0.2;fill:#ffffff" d="m 10,14.540039 h 4 V 6.019531 c -0.07992,0.513761 -0.651367,0.520508 -0.651367,0.520508 0,0 -0.666016,3.21e-4 -0.666016,-0.636719 0,-0.637045 -0.166992,-0.863281 -0.666992,-0.863281 -0.5,0 -0.666992,0.2262365 -0.666992,0.863281 0,0.63704 -0.666016,0.636719 -0.666016,0.636719 0,0 -0.666992,8e-4 -0.666992,-0.636719 0,0 -0.01563,6.327303 -0.01563,8.636719 z"/>
 <path style="opacity:0.5;fill:#ffffff" d="M 10.66667,8 C 10.66667,8 10,7.9995 10,8.63704 V 13 h 4 V 8.63704 C 14,8 13.333335,8 13.333335,8 c 0,0 -0.66667,0 -0.66667,0.63704 C 12.666665,9.274085 12.5,9.5 12,9.5 11.5,9.5 11.333335,9.274085 11.333335,8.63704 11.333335,8 10.66667,8 10.66667,8 Z"/>
 <path style="opacity:0.2" d="m 12,11 c -0.5,0 -0.666992,0.227128 -0.666992,0.867188 0,0.640055 -0.666016,0.632812 -0.666016,0.632812 C 10.666992,12.5 10,12.5077 10,11.867188 V 14.5 H 7 l 5,5 5,-5 H 14 V 11.867188 C 14,12.507243 13.333008,12.5 13.333008,12.5 c 0,0 -0.666016,0.0072 -0.666016,-0.632812 C 12.666992,11.227128 12.5,11 12,11 Z"/>
 <path style="fill:#ffffff" d="m 12,10.5 c -0.5,0 -0.666992,0.227128 -0.666992,0.867188 C 11.333008,12.007243 10.666992,12 10.666992,12 10.666992,12 10,12.007736 10,11.367188 V 14 H 7 l 5,5 5,-5 H 14 V 11.367188 C 14,12.007243 13.333008,12 13.333008,12 c 0,0 -0.666016,0.0072 -0.666016,-0.632812 C 12.666992,10.727128 12.5,10.5 12,10.5 Z"/>
</svg>
